X:99
T:Gan Ainm
R:Reel
N:
D:Conor Tully & Paddy Carty (Session Tape)
Z:Adrian Scahill
M:4/4
L:1/8
K:D
BEE2 d3B|ADD2 FGAd|BEEF GABc|1 d3f e2dc:|2 dBAd BEE2||\
e3f g2fe|defg afdf|edef g2fe|dBAd BEE2|\
edef g2fe|defg afdf|gbfg egfe|dBAd BEE2||
